img/logo-footer-tablet.svg

<svg width="101" height="58" viewBox="0 0 101 58" fill="none" xmlns="http://www.w3.org/2000/svg">
<path d="M17.728 38.488H15.936V43H13.36V31.8H15.936V36.328H17.792L20.736 31.8H23.472L19.808 37.208L23.584 43H20.64L17.728 38.488ZM29.8814 34.264C30.6814 34.264 31.4067 34.4507 32.0574 34.824C32.7187 35.1867 33.236 35.704 33.6094 36.376C33.9827 37.0373 34.1694 37.8107 34.1694 38.696C34.1694 39.5813 33.9827 40.36 33.6094 41.032C33.236 41.6933 32.7187 42.2107 32.0574 42.584C31.4067 42.9467 30.6814 43.128 29.8814 43.128C28.7827 43.128 27.9187 42.7813 27.2894 42.088V46.104H24.7934V34.392H27.1774V35.384C27.796 34.6373 28.6974 34.264 29.8814 34.264ZM29.4494 41.08C30.0894 41.08 30.612 40.8667 31.0174 40.44C31.4334 40.0027 31.6414 39.4213 31.6414 38.696C31.6414 37.9707 31.4334 37.3947 31.0174 36.968C30.612 36.5307 30.0894 36.312 29.4494 36.312C28.8094 36.312 28.2814 36.5307 27.8654 36.968C27.46 37.3947 27.2574 37.9707 27.2574 38.696C27.2574 39.4213 27.46 40.0027 27.8654 40.44C28.2814 40.8667 28.8094 41.08 29.4494 41.08ZM39.1221 34.264C40.4555 34.264 41.4795 34.584 42.1941 35.224C42.9088 35.8533 43.2661 36.808 43.2661 38.088V43H40.9301V41.928C40.4608 42.728 39.5861 43.128 38.3061 43.128C37.6448 43.128 37.0688 43.016 36.5781 42.792C36.0981 42.568 35.7301 42.2587 35.4741 41.864C35.2181 41.4693 35.0901 41.0213 35.0901 40.52C35.0901 39.72 35.3888 39.0907 35.9861 38.632C36.5941 38.1733 37.5275 37.944 38.7861 37.944H40.7701C40.7701 37.4 40.6048 36.984 40.2741 36.696C39.9435 36.3973 39.4475 36.248 38.7861 36.248C38.3275 36.248 37.8741 36.3227 37.4261 36.472C36.9888 36.6107 36.6155 36.8027 36.3061 37.048L35.4101 35.304C35.8795 34.9733 36.4395 34.7173 37.0901 34.536C37.7515 34.3547 38.4288 34.264 39.1221 34.264ZM38.9301 41.448C39.3568 41.448 39.7355 41.352 40.0661 41.16C40.3968 40.9573 40.6315 40.664 40.7701 40.28V39.4H39.0581C38.0341 39.4 37.5221 39.736 37.5221 40.408C37.5221 40.728 37.6448 40.984 37.8901 41.176C38.1461 41.3573 38.4928 41.448 38.9301 41.448ZM49.5304 43.128C48.613 43.128 47.7864 42.9413 47.0504 42.568C46.325 42.184 45.7544 41.656 45.3384 40.984C44.933 40.312 44.7304 39.5493 44.7304 38.696C44.7304 37.8427 44.933 37.08 45.3384 36.408C45.7544 35.736 46.325 35.2133 47.0504 34.84C47.7864 34.456 48.613 34.264 49.5304 34.264C50.437 34.264 51.2264 34.456 51.8984 34.84C52.581 35.2133 53.077 35.752 53.3864 36.456L51.4504 37.496C51.0024 36.7067 50.357 36.312 49.5144 36.312C48.8637 36.312 48.325 36.5253 47.8984 36.952C47.4717 37.3787 47.2584 37.96 47.2584 38.696C47.2584 39.432 47.4717 40.0133 47.8984 40.44C48.325 40.8667 48.8637 41.08 49.5144 41.08C50.3677 41.08 51.013 40.6853 51.4504 39.896L53.3864 40.952C53.077 41.6347 52.581 42.168 51.8984 42.552C51.2264 42.936 50.437 43.128 49.5304 43.128ZM54.9031 34.392H57.3831V39.512L61.5751 34.392H63.8631V43H61.3831V37.88L57.2071 43H54.9031V34.392ZM72.8385 38.504C73.8518 38.8453 74.3585 39.528 74.3585 40.552C74.3585 41.3307 74.0652 41.9333 73.4785 42.36C72.8918 42.7867 72.0172 43 70.8545 43H66.2625V34.392H70.6625C71.7398 34.392 72.5825 34.5893 73.1905 34.984C73.7985 35.368 74.1025 35.912 74.1025 36.616C74.1025 37.0427 73.9905 37.4213 73.7665 37.752C73.5532 38.072 73.2438 38.3227 72.8385 38.504ZM68.5505 37.928H70.4385C71.3132 37.928 71.7505 37.6187 71.7505 37C71.7505 36.392 71.3132 36.088 70.4385 36.088H68.5505V37.928ZM70.6465 41.304C71.5638 41.304 72.0225 40.9893 72.0225 40.36C72.0225 40.0293 71.9158 39.7893 71.7025 39.64C71.4892 39.48 71.1532 39.4 70.6945 39.4H68.5505V41.304H70.6465ZM80.7436 37.144C81.8636 37.1547 82.7116 37.4053 83.2876 37.896C83.8636 38.3867 84.1516 39.0907 84.1516 40.008C84.1516 40.968 83.8263 41.7093 83.1756 42.232C82.525 42.7547 81.6023 43.016 80.4076 43.016L76.2156 43V34.392H78.6956V37.144H80.7436ZM85.0796 34.392H87.5596V43H85.0796V34.392ZM80.1836 41.24C80.6636 41.2507 81.0316 41.1493 81.2876 40.936C81.5436 40.7227 81.6716 40.4027 81.6716 39.976C81.6716 39.56 81.5436 39.256 81.2876 39.064C81.0423 38.872 80.6743 38.7707 80.1836 38.76L78.6956 38.744V41.24H80.1836ZM89.9656 34.392H92.4456V39.512L96.6376 34.392H98.9256V43H96.4456V37.88L92.2696 43H89.9656V34.392ZM94.2856 33.464C92.4083 33.464 91.4643 32.6373 91.4536 30.984H93.0856C93.0963 31.3573 93.1976 31.6507 93.3896 31.864C93.5923 32.0667 93.8856 32.168 94.2696 32.168C94.6536 32.168 94.947 32.0667 95.1496 31.864C95.363 31.6507 95.4696 31.3573 95.4696 30.984H97.1336C97.123 32.6373 96.1736 33.464 94.2856 33.464Z" fill="white"/>
<path d="M82.136 53.464V56.392H80.396V55H75.86V56.392H74.12V53.464H74.384C74.784 53.456 75.06 53.22 75.212 52.756C75.364 52.292 75.46 51.632 75.5 50.776L75.584 48.544H81.212V53.464H82.136ZM77.192 50.908C77.168 51.564 77.116 52.1 77.036 52.516C76.964 52.932 76.824 53.248 76.616 53.464H79.34V50.08H77.228L77.192 50.908ZM86.3381 55.096C85.6581 55.096 85.0461 54.956 84.5021 54.676C83.9661 54.388 83.5461 53.992 83.2421 53.488C82.9381 52.984 82.7861 52.412 82.7861 51.772C82.7861 51.132 82.9381 50.56 83.2421 50.056C83.5461 49.552 83.9661 49.16 84.5021 48.88C85.0461 48.592 85.6581 48.448 86.3381 48.448C87.0181 48.448 87.6261 48.592 88.1621 48.88C88.6981 49.16 89.1181 49.552 89.4221 50.056C89.7261 50.56 89.8781 51.132 89.8781 51.772C89.8781 52.412 89.7261 52.984 89.4221 53.488C89.1181 53.992 88.6981 54.388 88.1621 54.676C87.6261 54.956 87.0181 55.096 86.3381 55.096ZM86.3381 53.56C86.8181 53.56 87.2101 53.4 87.5141 53.08C87.8261 52.752 87.9821 52.316 87.9821 51.772C87.9821 51.228 87.8261 50.796 87.5141 50.476C87.2101 50.148 86.8181 49.984 86.3381 49.984C85.8581 49.984 85.4621 50.148 85.1501 50.476C84.8381 50.796 84.6821 51.228 84.6821 51.772C84.6821 52.316 84.8381 52.752 85.1501 53.08C85.4621 53.4 85.8581 53.56 86.3381 53.56ZM97.4656 55V51.136L95.5336 54.376H94.7416L92.8576 51.124V55H91.1656V48.544H93.1216L95.1856 52.276L97.3816 48.544H99.1336L99.1576 55H97.4656Z" fill="white"/>
<path d="M17.8248 2L38.0599 22.1588H2V53H41" stroke="white" stroke-width="3" stroke-linecap="round" stroke-linejoin="round"/>
</svg>

<svg width="101" height="58" fill="none" xmlns="http://www.w3.org/2000/svg"><path d="M17.728 38.488h-1.792V43H13.36V31.8h2.576v4.528h1.856l2.944-4.528h2.736l-3.664 5.408L23.584 43H20.64l-2.912-4.512zm12.153-4.224c.8 0 1.526.187 2.176.56.662.363 1.179.88 1.552 1.552.374.661.56 1.435.56 2.32 0 .885-.186 1.664-.56 2.336a4.02 4.02 0 01-1.552 1.552c-.65.363-1.376.544-2.176.544-1.098 0-1.962-.347-2.592-1.04v4.016h-2.496V34.392h2.384v.992c.619-.747 1.52-1.12 2.704-1.12zm-.432 6.816c.64 0 1.163-.213 1.568-.64.416-.437.624-1.019.624-1.744 0-.725-.208-1.301-.624-1.728-.405-.437-.928-.656-1.568-.656s-1.168.219-1.584.656c-.405.427-.608 1.003-.608 1.728 0 .725.203 1.307.608 1.744.416.427.944.64 1.584.64zm9.673-6.816c1.334 0 2.358.32 3.072.96.715.63 1.072 1.584 1.072 2.864V43H40.93v-1.072c-.47.8-1.344 1.2-2.624 1.2-.661 0-1.237-.112-1.728-.336-.48-.224-.848-.533-1.104-.928a2.415 2.415 0 01-.384-1.344c0-.8.299-1.43.896-1.888.608-.459 1.542-.688 2.8-.688h1.984c0-.544-.165-.96-.496-1.248-.33-.299-.827-.448-1.488-.448-.459 0-.912.075-1.36.224-.437.139-.81.33-1.12.576l-.896-1.744c.47-.33 1.03-.587 1.68-.768a7.651 7.651 0 012.032-.272zm-.192 7.184a2.22 2.22 0 001.136-.288c.33-.203.566-.496.704-.88v-.88h-1.712c-1.024 0-1.536.336-1.536 1.008 0 .32.123.576.368.768.256.181.603.272 1.04.272zm10.6 1.68c-.917 0-1.744-.187-2.48-.56a4.38 4.38 0 01-1.712-1.584c-.405-.672-.608-1.435-.608-2.288 0-.853.203-1.616.608-2.288a4.265 4.265 0 011.712-1.568c.736-.384 1.563-.576 2.48-.576.907 0 1.696.192 2.368.576a3.32 3.32 0 011.488 1.616l-1.936 1.04c-.448-.79-1.093-1.184-1.936-1.184-.65 0-1.189.213-1.616.64-.426.427-.64 1.008-.64 1.744s.214 1.317.64 1.744c.427.427.966.64 1.616.64.854 0 1.499-.395 1.936-1.184l1.936 1.056a3.427 3.427 0 01-1.488 1.6c-.672.384-1.461.576-2.368.576zm5.373-8.736h2.48v5.12l4.192-5.12h2.288V43h-2.48v-5.12L57.207 43h-2.304v-8.608zm17.935 4.112c1.014.341 1.52 1.024 1.52 2.048 0 .779-.293 1.381-.88 1.808-.586.427-1.46.64-2.623.64h-4.593v-8.608h4.4c1.078 0 1.92.197 2.528.592.609.384.913.928.913 1.632 0 .427-.112.805-.337 1.136-.213.32-.522.57-.928.752zm-4.287-.576h1.888c.874 0 1.312-.31 1.312-.928 0-.608-.438-.912-1.313-.912H68.55v1.84zm2.096 3.376c.917 0 1.375-.315 1.375-.944 0-.33-.106-.57-.32-.72-.213-.16-.549-.24-1.007-.24H68.55v1.904h2.096zm10.097-4.16c1.12.01 1.968.261 2.544.752.576.49.864 1.195.864 2.112 0 .96-.326 1.701-.976 2.224-.651.523-1.574.784-2.768.784L76.216 43v-8.608h2.48v2.752h2.048zm4.336-2.752h2.48V43h-2.48v-8.608zm-4.896 6.848c.48.01.848-.09 1.104-.304.256-.213.384-.533.384-.96 0-.416-.128-.72-.384-.912-.246-.192-.614-.293-1.104-.304l-1.488-.016v2.496h1.488zm9.782-6.848h2.48v5.12l4.192-5.12h2.288V43h-2.48v-5.12L92.27 43h-2.304v-8.608zm4.32-.928c-1.878 0-2.822-.827-2.832-2.48h1.632c.01.373.112.667.304.88.202.203.496.304.88.304s.677-.101.88-.304c.213-.213.32-.507.32-.88h1.664c-.011 1.653-.96 2.48-2.848 2.48zm-12.15 20v2.928h-1.74V55H75.86v1.392h-1.74v-2.928h.264c.4-.008.676-.244.828-.708.152-.464.248-1.124.288-1.98l.084-2.232h5.628v4.92h.924zm-4.944-2.556c-.024.656-.076 1.192-.156 1.608-.072.416-.212.732-.42.948h2.724V50.08h-2.112l-.036.828zm9.146 4.188c-.68 0-1.292-.14-1.836-.42a3.22 3.22 0 01-1.26-1.188 3.257 3.257 0 01-.456-1.716c0-.64.152-1.212.456-1.716a3.135 3.135 0 011.26-1.176c.544-.288 1.156-.432 1.836-.432.68 0 1.288.144 1.824.432.536.28.956.672 1.26 1.176.304.504.456 1.076.456 1.716 0 .64-.152 1.212-.456 1.716a3.22 3.22 0 01-1.26 1.188c-.536.28-1.144.42-1.824.42zm0-1.536c.48 0 .872-.16 1.176-.48.312-.328.468-.764.468-1.308s-.156-.976-.468-1.296c-.304-.328-.696-.492-1.176-.492s-.876.164-1.188.492c-.312.32-.468.752-.468 1.296s.156.98.468 1.308c.312.32.708.48 1.188.48zM97.466 55v-3.864l-1.932 3.24h-.792l-1.884-3.252V55h-1.692v-6.456h1.956l2.064 3.732 2.196-3.732h1.752L99.158 55h-1.692z" fill="#fff"/><path d="M17.825 2L38.06 22.159H2V53h39" stroke="#fff" stroke-width="3" stroke-linecap="round" stroke-linejoin="round"/></svg>
